img/svg/certif-logo1.svg

<svg width="48" height="40" viewBox="0 0 48 40" fill="none" xmlns="http://www.w3.org/2000/svg">
<path d="M47.2688 15.3748C46.812 14.1755 45.8737 13.1048 44.7318 12.3327C41.4351 10.2396 36.4111 10.0906 33.0143 11.9828C31.1617 12.9273 29.9441 14.7962 29.5651 16.7209C28.8778 19.8831 29.0553 23.6454 31.4917 26.0156C34.3326 28.5058 38.4674 29.056 42.1441 28.033C42.3187 27.9995 42.8724 27.8601 43.2541 27.6575L43.3617 27.6114C44.5036 27.137 45.5926 26.3643 46.4057 25.3181C48.2822 22.5747 48.4108 18.4641 47.2688 15.3748ZM41.2826 22.4757C41.1529 23.0753 40.7495 23.6966 40.1134 23.9219C39.1006 24.3674 37.7305 24.2439 36.7923 23.7228C36.0054 23.1726 35.9041 22.2515 35.8028 21.3799C35.726 19.6617 35.602 17.8423 36.0833 16.2715C36.4606 15.2986 37.5012 15.0483 38.4423 14.9749C39.4306 14.9749 40.3928 15.1256 41.0033 15.9227C41.3834 16.4945 41.36 17.2426 41.4351 17.9162C41.4084 19.3357 41.5358 21.0289 41.2826 22.4757ZM11.2253 24.0232C10.3878 23.972 9.44956 24.0454 8.63877 23.9458L8.6638 15.1967L8.71501 15.1239L11.2253 15.0995C11.2515 13.6794 11.2765 12.1564 11.1992 10.862L1.63865 10.8353L0.0642949 10.8626C0.0392599 12.1825 0.0392599 13.7261 0.0642949 15.0733C0.927432 15.1 1.73765 15.0733 2.57519 15.1512V23.6244L2.55072 23.9725L0.0392599 24.0238C-0.0130867 25.394 -0.0130867 26.7658 0.0392599 28.136H11.2248L11.2253 24.0232ZM39.3783 30.0032C38.3143 31.5251 36.9698 32.9953 35.5018 34.1388C35.4484 34.2168 35.2964 34.1872 35.2481 34.1155C34.612 33.7178 33.9275 33.3924 33.3175 32.9953C34.13 32.0241 34.9169 31.0524 35.5257 29.9765H34.7366C34.1061 30.9022 33.445 31.8733 32.6086 32.6932C31.4917 32.2454 30.4778 31.8472 29.3364 31.5456L29.2095 31.4506C29.3871 30.9471 29.7159 30.4743 29.8166 29.9754H29.1322L28.4477 31.322C26.953 30.9983 25.3035 30.8219 23.7815 30.7235C23.7047 30.4999 23.8054 30.1756 23.7047 29.9754H23.0452C22.9929 30.2752 23.1215 30.5011 22.969 30.7497C21.3964 30.8219 19.8749 30.9983 18.4052 31.3004L17.7179 29.9754C17.467 29.9754 17.1848 29.9276 17.0095 30.0021L17.6422 31.4728L17.5666 31.5456C16.4298 31.8745 15.3121 32.2661 14.2187 32.7188L14.118 32.6676C13.4062 31.8949 12.7212 31.0512 12.1624 30.2035C12.0367 29.7774 11.5292 30.0266 11.2498 29.9765C11.8563 31.0745 12.6705 32.0451 13.4808 33.0436C12.7963 33.4436 12.1141 33.8896 11.4006 34.2168C9.84909 33.0352 8.49661 31.6131 7.39442 30.0044C7.08945 29.9555 6.8886 29.9776 6.58192 30.0044C8.40833 32.8456 11.2498 35.337 14.2176 36.8077C14.2176 36.8077 14.2176 36.7855 14.2449 36.7855C14.2665 36.7855 14.3172 36.8316 14.2665 36.8577C16.2716 37.8301 18.4035 38.5276 20.659 38.828C28.4465 39.8486 35.8791 36.5357 40.1885 30.0044C39.9192 29.9766 39.6477 29.9763 39.3783 30.0032ZM28.8039 32.246L28.8784 32.1959C29.972 32.4451 31.0098 32.7944 31.9742 33.2666C31.1617 34.1866 30.1216 34.986 29.1589 35.6584C28.5763 36.0061 27.9908 36.3838 27.3814 36.6808L26.293 36.2075L26.3675 36.0351C27.2824 34.8147 28.0943 33.567 28.8039 32.246ZM23.8054 31.4978C25.2523 31.5251 26.6986 31.6742 28.0409 31.9968L28.0676 32.0725C27.3587 33.4168 26.4688 34.7157 25.5066 35.9344C25.0731 35.9856 24.6691 35.8132 24.2384 35.7864L23.8048 35.7352C23.7553 34.2646 23.7286 32.9685 23.8054 31.4978ZM18.9122 31.9461C20.2311 31.697 21.6 31.4978 23.0196 31.4978L23.0458 35.7142C22.5121 35.8348 21.9289 35.8348 21.4214 35.9628C20.3813 34.7385 19.5199 33.4168 18.7853 32.0451L18.9122 31.9461ZM14.8264 33.2934C15.8181 32.8183 16.8565 32.4673 17.9205 32.1953L18.0235 32.2215C18.7569 33.5926 19.6712 34.8875 20.5839 36.1836C20.2317 36.3844 19.7981 36.5044 19.4442 36.707C17.7289 35.8597 16.1681 34.7304 14.827 33.3662V33.2934H14.8264ZM18.0997 37.5547C15.9689 37.0045 13.9889 36.0578 12.163 34.7641V34.6867C12.7718 34.3163 13.3829 33.9164 14.0401 33.6393C15.487 35.0639 16.9822 36.1358 18.6055 37.1553C18.4792 37.3049 18.2767 37.4551 18.0997 37.5547ZM27.5089 37.8767C24.821 38.4536 21.8265 38.4758 19.1392 37.8289C19.088 37.7049 19.2661 37.6782 19.3418 37.6053C21.7008 36.0834 25.3769 36.0834 27.6875 37.7265C27.7626 37.8767 27.5601 37.8289 27.5089 37.8767ZM29.9447 37.1815L28.7526 37.5541C28.549 37.4546 28.3726 37.3049 28.1933 37.1547L28.2446 37.0785C29.8684 36.1352 31.3386 34.9854 32.7343 33.6148C33.4194 33.8885 34.0794 34.2646 34.6899 34.6861C33.268 35.8132 31.6186 36.5574 29.9447 37.1815ZM7.34492 8.94189C7.9723 8.07373 8.65859 7.24968 9.39892 6.47556C10.0561 5.85258 10.6672 5.25463 11.3784 4.80404C12.0384 5.22733 12.7729 5.58006 13.4068 5.97718C12.621 6.94437 11.8091 7.92066 11.2259 8.96465C11.4023 9.04259 11.7334 9.01813 11.9878 8.96465C12.621 8.04412 13.3038 7.12244 14.1186 6.2992C15.2065 6.69916 16.2733 7.1213 17.3908 7.4217L17.4892 7.5207L16.8576 8.96465C17.1376 9.01813 17.3151 8.99196 17.5922 8.96465C17.8198 8.54364 17.9962 8.07142 18.2499 7.64529C19.723 7.97072 21.2706 8.14425 22.8433 8.19261C23.0447 8.36954 22.8933 8.74163 22.9696 8.96465H23.6541C23.7286 8.72001 23.6284 8.44237 23.7286 8.22048C25.2011 8.14311 26.7476 7.99348 28.1729 7.64416L28.2963 7.67033L28.9814 8.96351C29.2101 8.96351 29.5139 9.01699 29.6915 8.91231L29.0559 7.47063L29.1088 7.42056C30.2735 7.1213 31.366 6.67299 32.4817 6.22523C33.2703 7.04734 34.0037 8.01908 34.6654 8.96294C34.9431 8.96294 35.2225 8.99025 35.4256 8.91174C35.1124 8.35532 34.7469 7.82992 34.3343 7.34262C33.9993 6.86532 33.6256 6.41643 33.2168 6.00051V5.87136L34.9926 4.85126L35.2486 4.7517C36.7929 5.9205 38.1444 7.32423 39.2537 8.91174C39.5581 8.91174 39.8124 9.01642 40.0667 8.89069C36.6643 3.81068 31.0598 0.542158 25.0008 0.07165L24.9741 0.120009L24.9223 0.07165C24.2384 -0.00174242 23.398 -0.030758 22.6635 0.0426344C22.3852 0.0210149 22.0564 0.0426344 21.7258 0.07165C15.6395 0.542158 10.0345 3.65934 6.53242 8.96579C6.78618 8.94189 7.09058 9.04316 7.34492 8.94189ZM17.8727 6.75207L17.7714 6.77369C16.7302 6.50231 15.7146 6.17517 14.7507 5.75302L14.7996 5.60339C16.1948 4.2829 17.6656 3.18542 19.2889 2.33999C19.6712 2.48962 20.0513 2.61308 20.4314 2.79001L20.3568 2.98459C19.3913 4.1839 18.6323 5.47709 17.8727 6.75207ZM22.9184 7.42284C22.21 7.5224 21.5756 7.40065 20.8627 7.34546C20.181 7.24533 19.3167 7.17308 18.6323 6.9455C19.368 5.5812 20.2317 4.25786 21.2706 3.03978L22.8945 3.26109C22.9696 4.55485 22.9184 6.05114 22.9184 7.42284ZM23.7041 7.44958C23.6541 6.12453 23.6802 4.65612 23.7041 3.28499C24.2134 3.21216 24.7687 3.13479 25.2773 3.0614C26.2662 4.30565 27.2323 5.5812 27.8924 6.9455C26.5209 7.27729 25.1151 7.44648 23.7041 7.44958ZM31.7978 5.70238C30.8067 6.12396 29.791 6.52336 28.702 6.75207C27.9163 5.431 27.0543 4.11051 26.0876 2.83439C26.4432 2.63925 26.8767 2.48962 27.2562 2.29106C28.908 3.1126 30.504 4.2829 31.8467 5.62444L31.7978 5.70238ZM28.549 1.44107C30.6798 1.99066 32.6837 2.93623 34.5101 4.23226L34.4595 4.33182L32.711 5.30242H32.5819C31.2396 3.96145 29.6676 2.79001 28.0676 1.8655C28.1182 1.69083 28.3731 1.5651 28.549 1.44107ZM27.5356 1.19074V1.24365C25.3274 2.83439 21.752 2.98459 19.4197 1.5139C19.2889 1.41433 19.0385 1.36597 19.0112 1.19131C21.7013 0.571174 24.87 0.521107 27.5356 1.19074ZM12.0623 4.2829C13.6617 3.1126 15.4363 2.24042 17.3139 1.64191C17.3908 1.56396 17.4397 1.49057 17.5398 1.49057V1.54177C17.7424 1.5907 17.8954 1.36484 18.0724 1.51276C18.2254 1.64191 18.4047 1.74033 18.5299 1.86436C16.9583 2.83439 15.4102 3.98307 13.9894 5.37582C13.3044 5.13118 12.6728 4.75511 12.0617 4.33182L12.0623 4.2829ZM22.9445 24.2178C20.5605 24.8669 17.9717 24.3719 16.2477 22.5747C16.0457 22.3255 15.9177 22.0285 15.714 21.7804L12.291 21.8043C12.237 23.8223 12.2131 26.1408 12.291 28.1354L16.0941 28.111L16.1447 26.9139C16.5777 27.1131 17.0095 27.3617 17.4397 27.5853C20.0775 28.6833 23.4731 28.9325 26.0864 27.5853C27.9902 26.5413 29.0053 24.5233 28.7253 22.3505C28.4477 20.2347 26.4176 18.3145 24.3647 17.7928L18.2249 16.0217L17.7708 15.7964C17.5677 15.6234 17.4403 15.4004 17.4898 15.1239C17.9717 14.3035 19.0892 14.5527 19.9261 14.5749C21.7013 14.8247 23.5272 15.4226 24.5678 17.0435C25.6825 17.0435 26.9757 17.0651 28.1922 17.0173C28.244 14.9743 28.1723 13.181 28.1421 11.1118C27.0008 11.0856 25.6051 11.0856 24.4654 11.138C24.4142 11.4344 24.5143 11.8565 24.3875 12.1569L23.2216 11.5334C20.4302 10.3625 16.5236 10.2402 13.9883 12.0596C12.3388 13.2538 11.833 15.3993 12.2643 17.2927C12.5926 19.0843 14.3172 20.4065 15.9666 21.0277C18.2237 21.8243 20.5816 22.4012 22.8683 23.1726C23.0947 23.2739 23.3986 23.4998 23.3496 23.7734C23.3508 23.9947 23.1209 24.1227 22.9445 24.2178Z" fill="black"/>
</svg>

<svg width="48" height="40" viewBox="0 0 48 40" fill="none" xmlns="http://www.w3.org/2000/svg"><path d="M47.269 15.375c-.457-1.2-1.395-2.27-2.537-3.042-3.297-2.093-8.32-2.242-11.718-.35-1.852.944-3.07 2.813-3.449 4.738-.687 3.162-.51 6.924 1.927 9.295 2.84 2.49 6.975 3.04 10.652 2.017.175-.034.728-.173 1.11-.376l.108-.046c1.142-.474 2.23-1.247 3.044-2.293 1.876-2.743 2.005-6.854.863-9.943zm-5.986 7.1c-.13.6-.534 1.222-1.17 1.447-1.012.445-2.383.322-3.32-.2-.788-.55-.889-1.47-.99-2.342-.077-1.718-.201-3.538.28-5.108.378-.973 1.418-1.224 2.36-1.297.988 0 1.95.15 2.56.948.38.571.357 1.32.432 1.993-.027 1.42.1 3.113-.152 4.56zm-30.058 1.548c-.837-.051-1.775.022-2.586-.077l.025-8.75.051-.072 2.51-.024c.027-1.42.052-2.944-.026-4.238l-9.56-.027-1.575.028c-.025 1.32-.025 2.863 0 4.21.863.027 1.674 0 2.511.078v8.473l-.024.349-2.512.05a53.86 53.86 0 000 4.113h11.186v-4.113zm28.153 5.98c-1.064 1.522-2.408 2.992-3.876 4.136-.054.078-.206.048-.254-.024-.636-.397-1.32-.723-1.93-1.12.812-.97 1.599-1.943 2.208-3.018h-.79c-.63.925-1.291 1.896-2.127 2.716-1.117-.448-2.131-.846-3.273-1.147l-.127-.095c.178-.504.507-.977.608-1.476h-.685l-.684 1.347c-1.495-.324-3.145-.5-4.666-.598-.077-.224.023-.548-.077-.749h-.66c-.052.3.076.526-.076.775a29.32 29.32 0 00-4.564.55l-.687-1.325c-.251 0-.533-.047-.709.027l.633 1.47-.075.074c-1.137.329-2.255.72-3.348 1.173l-.101-.051a19.846 19.846 0 01-1.956-2.465c-.125-.426-.633-.176-.912-.226.606 1.098 1.42 2.068 2.23 3.067-.684.4-1.366.846-2.08 1.173a18.287 18.287 0 01-4.006-4.213c-.305-.049-.505-.026-.812 0 1.826 2.842 4.668 5.333 7.636 6.804 0 0 0-.023.027-.023.022 0 .072.047.022.073 2.005.972 4.137 1.67 6.392 1.97 7.788 1.02 15.22-2.292 19.53-8.824a4.01 4.01 0 00-.81 0zm-10.574 2.243l.074-.05c1.094.25 2.132.598 3.096 1.07-.812.92-1.852 1.72-2.815 2.392-.583.348-1.168.726-1.778 1.023l-1.088-.473.075-.173a29.83 29.83 0 002.436-3.789zm-4.999-.748c1.447.027 2.894.176 4.236.499l.027.075c-.71 1.345-1.6 2.644-2.561 3.862-.434.052-.838-.12-1.269-.148l-.433-.05c-.05-1.471-.076-2.767 0-4.238zm-4.893.448c1.32-.249 2.688-.448 4.108-.448l.026 4.216c-.534.12-1.117.12-1.625.249-1.04-1.224-1.901-2.546-2.636-3.918l.127-.099zm-4.086 1.347c.992-.475 2.03-.826 3.095-1.098l.102.026c.734 1.372 1.648 2.667 2.56 3.963-.351.2-.785.32-1.139.523a17.086 17.086 0 01-4.617-3.34v-.074zm3.274 4.262c-2.131-.55-4.111-1.497-5.937-2.79v-.078c.609-.37 1.22-.77 1.877-1.048 1.447 1.425 2.942 2.497 4.566 3.516-.127.15-.33.3-.506.4zm9.409.322c-2.688.577-5.683.599-8.37-.048-.051-.124.127-.15.203-.224 2.359-1.522 6.035-1.522 8.346.122.075.15-.128.102-.18.15zm2.436-.696l-1.192.373c-.204-.1-.38-.25-.56-.4l.052-.076c1.623-.943 3.094-2.093 4.49-3.463.684.273 1.344.65 1.955 1.071-1.422 1.127-3.071 1.871-4.745 2.495zm-22.6-28.24a23.392 23.392 0 012.054-2.465c.657-.623 1.268-1.221 1.98-1.672.66.423 1.394.776 2.028 1.173-.786.967-1.598 1.944-2.181 2.988.176.078.507.053.762 0 .633-.92 1.316-1.843 2.13-2.666 1.088.4 2.155.822 3.273 1.123l.098.099-.631 1.444c.28.053.457.027.734 0 .228-.421.404-.894.658-1.32 1.473.326 3.02.5 4.593.548.202.177.05.549.127.772h.684c.075-.245-.026-.523.075-.745 1.472-.077 3.019-.227 4.444-.576l.123.026.685 1.294c.23 0 .533.053.71-.052l-.635-1.441.053-.05c1.164-.3 2.257-.748 3.373-1.196.788.822 1.522 1.794 2.183 2.738.278 0 .557.027.76-.051a10.08 10.08 0 00-1.09-1.57 10.61 10.61 0 00-1.118-1.341v-.13l1.776-1.02.256-.1a18.523 18.523 0 014.005 4.16c.304 0 .558.105.813-.02C36.664 3.81 31.06.542 25 .07l-.027.049-.052-.048a11.563 11.563 0 00-2.259-.03 5.94 5.94 0 00-.937.03c-6.086.47-11.691 3.587-15.194 8.894.254-.024.559.077.813-.024zm10.528-2.189l-.102.022a20.253 20.253 0 01-3.02-1.021l.049-.15c1.395-1.32 2.866-2.418 4.489-3.263.382.15.762.273 1.142.45l-.074.195c-.966 1.199-1.725 2.492-2.484 3.767zm5.045.67c-.708.1-1.342-.021-2.055-.077-.682-.1-1.546-.172-2.23-.4.735-1.364 1.599-2.687 2.638-3.905l1.623.221c.076 1.294.024 2.79.024 4.162zm.786.028c-.05-1.325-.024-2.794 0-4.165.51-.073 1.065-.15 1.573-.224.99 1.245 1.955 2.52 2.615 3.885a17.98 17.98 0 01-4.188.504zm8.094-1.748c-.991.422-2.007.821-3.096 1.05a42.16 42.16 0 00-2.614-3.918c.355-.195.789-.344 1.168-.543 1.652.822 3.248 1.992 4.59 3.333l-.048.078zm-3.249-4.26a18.078 18.078 0 015.961 2.79l-.05.1-1.749.97h-.13a22.104 22.104 0 00-4.513-3.436c.05-.175.305-.3.481-.425zm-1.013-.251v.053c-2.209 1.59-5.784 1.74-8.116.27-.131-.1-.382-.148-.409-.323 2.69-.62 5.859-.67 8.525 0zM12.062 4.283a18.234 18.234 0 015.252-2.641c.077-.078.126-.151.226-.151v.05c.202.05.355-.176.532-.028.153.129.333.227.458.351-1.572.97-3.12 2.12-4.54 3.512-.686-.245-1.317-.62-1.928-1.044v-.05zm10.883 19.935c-2.384.649-4.973.154-6.697-1.643-.202-.25-.33-.546-.534-.795l-3.423.024c-.054 2.018-.078 4.337 0 6.331l3.803-.024.05-1.197c.434.2.866.448 1.296.671 2.637 1.098 6.033 1.348 8.646 0 1.904-1.044 2.92-3.062 2.64-5.235-.278-2.115-2.308-4.036-4.361-4.557l-6.14-1.771-.454-.226c-.203-.173-.33-.396-.281-.672.482-.82 1.6-.571 2.436-.55 1.775.25 3.601.849 4.642 2.47 1.114 0 2.408.021 3.624-.027.052-2.043-.02-3.836-.05-5.905a57.34 57.34 0 00-3.677.026c-.05.296.05.719-.078 1.019l-1.165-.624c-2.792-1.17-6.698-1.293-9.234.527-1.65 1.194-2.155 3.34-1.724 5.233.329 1.791 2.053 3.114 3.703 3.735 2.257.796 4.615 1.373 6.901 2.145.227.1.53.327.482.6 0 .222-.23.35-.405.445z" fill="#000"/></svg>
